images/noun_project_1209.svg

<svg xmlns="http://www.w3.org/2000/svg" xmlns:xlink="http://www.w3.org/1999/xlink" version="1.1" id="Layer_1" x="0px" y="0px" width="100px" height="75.422px" viewBox="0 0 100 75.422" enable-background="new 0 0 100 75.422" xml:space="preserve">
<g>
	<path fill="#000000" d="M93,7v61.422H7V7H93 M100,0H0v75.422h100V0L100,0z"/>
</g>
<g>
	<rect x="13.993" y="22.711" fill="#000000" width="40.505" height="4"/>
</g>
<g>
	<rect x="13.993" y="50.211" fill="#000000" width="40.505" height="4"/>
</g>
<g>
	<rect x="13.993" y="40.711" fill="#000000" width="40.505" height="4"/>
</g>
<g>
	<rect x="13.993" y="31.961" fill="#000000" width="40.505" height="4"/>
</g>
<g>
	<path fill="#000000" d="M82.75,17.211v10h-10v-10H82.75 M85.75,14.211h-16v16h16V14.211L85.75,14.211z"/>
</g>
</svg>

<?xml version="1.0" encoding="UTF-8" standalone="no"?>
<!-- Created with Inkscape (http://www.inkscape.org/) -->

<svg
   xmlns:dc="http://purl.org/dc/elements/1.1/"
   xmlns:cc="http://creativecommons.org/ns#"
   xmlns:rdf="http://www.w3.org/1999/02/22-rdf-syntax-ns#"
   xmlns:svg="http://www.w3.org/2000/svg"
   xmlns="http://www.w3.org/2000/svg"
   version="1.1"
   width="100"
   height="100"
   viewBox="0 0 100 100"
   id="Layer_1"
   xml:space="preserve"><metadata
   id="metadata20601"><rdf:RDF><cc:Work
       rdf:about=""><dc:format>image/svg+xml</dc:format><dc:type
         rdf:resource="http://purl.org/dc/dcmitype/StillImage" /><dc:title></dc:title></cc:Work></rdf:RDF></metadata><defs
   id="defs20599" />





<g
   transform="translate(0,12.289)"
   id="g20603"
   style="fill:#000000;fill-opacity:1"><g
     id="g20573"
     style="fill:#000000;fill-opacity:1">
	<path
   d="M 93,7 V 68.422 H 7 V 7 h 86 m 7,-7 H 0 V 75.422 H 100 V 0 l 0,0 z"
   id="path20575"
   style="fill:#000000;fill-opacity:1" />
</g><g
     id="g20577"
     style="fill:#000000;fill-opacity:1">
	<rect
   width="40.505001"
   height="4"
   x="13.993"
   y="22.711"
   id="rect20579"
   style="fill:#000000;fill-opacity:1" />
</g><g
     id="g20581"
     style="fill:#000000;fill-opacity:1">
	<rect
   width="40.505001"
   height="4"
   x="13.993"
   y="50.210999"
   id="rect20583"
   style="fill:#000000;fill-opacity:1" />
</g><g
     id="g20585"
     style="fill:#000000;fill-opacity:1">
	<rect
   width="40.505001"
   height="4"
   x="13.993"
   y="40.710999"
   id="rect20587"
   style="fill:#000000;fill-opacity:1" />
</g><g
     id="g20589"
     style="fill:#000000;fill-opacity:1">
	<rect
   width="40.505001"
   height="4"
   x="13.993"
   y="31.961"
   id="rect20591"
   style="fill:#000000;fill-opacity:1" />
</g><g
     id="g20593"
     style="fill:#000000;fill-opacity:1">
	<path
   d="m 82.75,17.211 v 10 h -10 v -10 h 10 m 3,-3 h -16 v 16 h 16 v -16 l 0,0 z"
   id="path20595"
   style="fill:#000000;fill-opacity:1" />
</g></g>
</svg>
